X:439
T: Xinsijun laidao bantajie
N: C2056
O: China,Anhui Laian
S: III, 553, 2)]
R: Xiaodiao]
M: 2/4
L: 1/16
K: F
c2ccd2f2 | A2GAF2D2 | c2Acc2D2 | F2EDC4 |
f2d2c2f2 | d6A2 | c8 |
f2d2c4 | F6A2 | G2D2C2z2

@@@ Tune index: 6994
